X: 4
T: Credo IV
N: Derived from Isa1041-Credo_IV.krn
C: Heinrich Isaac
%%abc-version 2.0
%%abcx-abcm2ps-target-version 5.9.1 (29 Sep 2008)
%%abc-creator hum2abc beta
%%abcx-conversion-date 2019/02/16 20:38:44
%%abc-edited-by Jesse Rodin
%%abc-edited-by Megan K. Eagen 2014/10/02
%%abcx-initial-encoding-date 2014/10/02/
%%humdrum-veritas 3267957675
%%humdrum-veritas-data 2247744469
%%linebreak <none>
%%barnumbers 0
L: 1/4
M: 2/1
Q: 1/2=120
%%staves [1 2 3 4]
V: 1 clef=treble
V: 2 clef=treble-8
V: 3 clef=treble-8
V: 4 clef=bass
K: F
[V:1] d4G4 | 
[V:2] d4e4 | 
[V:3] z8 | 
[V:4] z8 | 
[V:1] z8 | 
[V:2] d4z2g2- | 
[V:3] d4G4 | 
[V:4] D,4E,4 | 
[V:1] z2d2e2d2- | 
[V:2] g2f2g2d2 | 
[V:3] d4c2B2 | 
[V:4] D,4z4 | 
[V:1] d2c4=B2 | 
[V:2] e2f2d4 | 
[V:3] A4G4 | 
[V:4] z8 | 
[V:1] c8 | 
[V:2] c4z4 | 
[V:3] z4z2A2 | 
[V:4] z2A,2C3B, | 
[V:1] z8 | 
[V:2] z8 | 
[V:3] c2d2e4 | 
[V:4] A,2F,2G,2A,2 | 
[V:1] z4z2e2 | 
[V:2] z4z2g2 | 
[V:3] f3ed2^c2 | 
[V:4] D,3E,F,G,E,2 | 
[V:1] f4g3f | 
[V:2] b2a2g2c2 | 
[V:3] d4z4 | 
[V:4] D,4z4 | 
[V:1] e2d2c2=B2 | 
[V:2] g3fe2d2 | 
[V:3] z8 | 
[V:4] z8 | 
[V:1] c4z4 | 
[V:2] c4z4 | 
[V:3] z2e2f3f | 
[V:4] z2A,4F,2 | 
[V:1] z8 | 
[V:2] z8 | 
[V:3] e2d2d2^c2 | 
[V:4] G,2D,2E,2E,2 | 
[V:1] z4d4 | 
[V:2] z2a2d2g2- | 
[V:3] d8 | 
[V:4] D,4G,4 | 
[V:1] G4c3d | 
[V:2] g2c4f2- | 
[V:3] z8 | 
[V:4] z8 | 
[V:1] cBAGF2G2 | 
[V:2] fgfedcB2 | 
[V:3] z8 | 
[V:4] z8 | 
[V:1] A2B2AGc2 | 
[V:2] c2defgec | 
[V:3] z8 | 
[V:4] z8 | 
[V:1] BAA4G2 | 
[V:2] dAc2B4 | 
[V:3] z8 | 
[V:4] z8 | 
[V:1] A8 | 
[V:2] A8 | 
[V:3] z4z2A2 | 
[V:4] z2A,2C3B, | 
[V:1] z8 | 
[V:2] z8 | 
[V:3] c2d2e2f2 | 
[V:4] A,2F,2G,2A,2 | 
[V:1] z8 | 
[V:2] z4z2e2 | 
[V:3] e2d2d2^c2 | 
[V:4] G,F,E,D,E,4 | 
[V:1] f3fe2d2 | 
[V:2] f4g2f2 | 
[V:3] d4c2d2 | 
[V:4] D,4z4 | 
[V:1] d2^c2d4 | 
[V:2] e4d2d2 | 
[V:3] A4z4 | 
[V:4] z8 | 
[V:1] z2d2G2d2 | 
[V:2] G2d2c2B2 | 
[V:3] z8 | 
[V:4] z8 | 
[V:1] c3BA2G2 | 
[V:2] A3BcdB2 | 
[V:3] z4z2G2 | 
[V:4] z4z2G,2 | 
[V:1] A4z4 | 
[V:2] A4z4 | 
[V:3] FGABc2d2 | 
[V:4] D,E,F,G,A,2F,2 | 
[V:1] z2e2f3e | 
[V:2] z2a2a3g | 
[V:3] d2^c2d4 | 
[V:4] G,2A,2D,4 | 
[V:1] d2^c2d4 | 
[V:2] f2e2d2g2 | 
[V:3] z4z2d2 | 
[V:4] z4z2G,2 | 
[V:1] z4z2G2 | 
[V:2] f3ed2^c2 | 
[V:3] c3BA2G2 | 
[V:4] A,3G,F,2E,2 | 
[V:1] F2DEFGAB | 
[V:2] d4A4 | 
[V:3] A2F2F3G | 
[V:4] D,2D2C3B, | 
[V:1] cBAGB2A2- | 
[V:2] z4z2A2 | 
[V:3] ABc2B2c2 | 
[V:4] A,G,F,E,D,2C,2 | 
[V:1] AGG4^F2 | 
[V:2] B2c2d4 | 
[V:3] G4A4 | 
[V:4] E,4D,4 | 
[V:1] G8 ||  
[V:2] d8 ||  
[V:3] G8 ||  
[V:4] G,8 ||  
[V:1]  [K:F] [K:clef=treble][M:2/1](3:2:4d4c2d4e2 | 
[V:2]  [K:F] [K:clef=treble-8][M:2/1](3:2:4d4e2f4e2 | 
[V:3]  [K:F] [K:clef=treble-8][M:2/1]z8 | 
[V:4]  [K:F] [K:clef=bass][M:2/1]z8 | 
[V:1] (3:2:4f4e2d4^c2 | 
[V:2] (3:2:4d4c2d2e4 | 
[V:3] z8 | 
[V:4] z8 | 
[V:1] d4z4 | 
[V:2] (3:2:5d4d2e2e2e2 | 
[V:3] (3:2:4d4d2c4B2 | 
[V:4] (3:2:4D,4C,2A,4G,2 | 
[V:1] z8 | 
[V:2] (3:2:4f4e2d4^c2 | 
[V:3] (3:2:4A4G2F2G4 | 
[V:4] (3:2:4F,4G,2D,2E,4 | 
[V:1] z4z2A2 | 
[V:2] d2A2c2d2 | 
[V:3] A8 | 
[V:4] D,2A,3G,F,2 | 
[V:1] c2d2dcBA | 
[V:2] e2f2gab2- | 
[V:3] z8 | 
[V:4] E,2D,2G,4 | 
[V:1] G2B2A2A2 | 
[V:2] bag4^f2 | 
[V:3] z8 | 
[V:4] z4D4 | 
[V:1] G4z4 | 
[V:2] g8 | 
[V:3] d3cd2e2 | 
[V:4] G,3A,B,2C2 | 
[V:1] z8 | 
[V:2] z8 | 
[V:3] f3ed2^c2 | 
[V:4] A,3G,F,2E,2 | 
[V:1] z2d2d2d2 | 
[V:2] z2f2f2f2 | 
[V:3] d4z4 | 
[V:4] D,2B,2B,2B,2 | 
[V:1] d2G2A2B2 | 
[V:2] d2e2f2g2 | 
[V:3] z2c2c2d2 | 
[V:4] B,2C2A,2G,2 | 
[V:1] c4z4 | 
[V:2] e2c2d2dd | 
[V:3] cBAGB2A2- | 
[V:4] A,2A,2D,2D,D, | 
[V:1] z8 | 
[V:2] G4A4 | 
[V:3] AGg4^f2 | 
[V:4] E,4D,4 | 
[V:1] z8 | 
[V:2] G2g2g2f2 | 
[V:3] g2d2d2c2 | 
[V:4] G,2B,2A,4 | 
[V:1] z2d2d2c2 | 
[V:2] g2d2e2e2 | 
[V:3] d2B2A4 | 
[V:4] G,4z4 | 
[V:1] d2A2B2B2 | 
[V:2] d4g4 | 
[V:3] z8 | 
[V:4] z8 | 
[V:1] A4z4 | 
[V:2] f4d4 | 
[V:3] z2d2f4 | 
[V:4] z2D4B,2 | 
[V:1] z8 | 
[V:2] z8 | 
[V:3] e2d2f4 | 
[V:4] C2G,2A,4 | 
[V:1] z2d2e2d2- | 
[V:2] z8 | 
[V:3] g4z2g2 | 
[V:4] G,8 | 
[V:1] dcc4=B2 | 
[V:2] z8 | 
[V:3] f2e2d4 | 
[V:4] z8 | 
[V:1] c2g3fe2 | 
[V:2] z2g4g2 | 
[V:3] c4z2c2 | 
[V:4] z2C,3D,E,F, | 
[V:1] d2c4=B2 | 
[V:2] g2g2g2g2 | 
[V:3] B2c2d4 | 
[V:4] G,2C,2G,2G,2 | 
[V:1] [M:3/1]c8z4 | 
[V:2] [M:3/1]g8z4 | 
[V:3] [M:3/1]c8z4 | 
[V:4] [M:3/1]C,8z4 | 
[V:1] d8c4 | 
[V:2] b8a4 | 
[V:3] f8f4 | 
[V:4] B,,8F,4 | 
[V:1] d4c4B4 | 
[V:2] b4a4g4 | 
[V:3] f4f4d4 | 
[V:4] B,,4F,4G,4 | 
[V:1] [M:2/1]!fermata!A8 | 
[V:2] [M:2/1]!fermata!f8 | 
[V:3] [M:2/1]!fermata!d8 | 
[V:4] [M:2/1]!fermata!D,8 | 
[V:1] z8 | 
[V:2] z4d4 | 
[V:3] G4F4 | 
[V:4] G,4D,2F,2 | 
[V:1] z8 | 
[V:2] c4d4 | 
[V:3] G4A4 | 
[V:4] E,4D,4 | 
[V:1] z8 | 
[V:2] e2c4BA | 
[V:3] c3dedf2 | 
[V:4] A,6G,F, | 
[V:1] z8 | 
[V:2] B2A2A2G2 | 
[V:3] e2d4^c2 | 
[V:4] G,2D,2E,4 | 
[V:1] z4d4 | 
[V:2] A4z2d2 | 
[V:3] d8 | 
[V:4] D,8 | 
[V:1] G2A2B2c2 | 
[V:2] e2f2gfed | 
[V:3] z8 | 
[V:4] z8 | 
[V:1] A3G/F/G4 | 
[V:2] c2f4e2 | 
[V:3] z8 | 
[V:4] z8 | 
[V:1] F8- | 
[V:2] f3e/d/d4 | 
[V:3] B2A2B2A2 | 
[V:4] D,6D,2 | 
[V:1] F8 | 
[V:2] z2d4d2 | 
[V:3] BABAB2A2 | 
[V:4] D,4D,4 | 
[V:1] B2A2B2A2 | 
[V:2] defe/f/gffe/f/ | 
[V:3] B2c2d2c2 | 
[V:4] G,2A,2G,2A,2 | 
[V:1] BABAB2A2- | 
[V:2] g2d3efe/f/ | 
[V:3] d4B2c2 | 
[V:4] G,3A,G,2F,2 | 
[V:1] AGG4^F2 | 
[V:2] g2c2d4 | 
[V:3] G4A4 | 
[V:4] E,4D,4 | 
[V:1] G8 ||  
[V:2] d8 ||  
[V:3] G8 ||  
[V:4] G,8 ||  
[V:1]  [K:F] [K:clef=treble][M:2/1]z8 | 
[V:2]  [K:F] [K:clef=treble-8][M:2/1]z8 | 
[V:3]  [K:F] [K:clef=treble-8][M:2/1]g8 | 
[V:4]  [K:F] [K:clef=bass][M:2/1]G,3A,B,2C2 | 
[V:1] z8 | 
[V:2] z8 | 
[V:3] f2d2e2f2 | 
[V:4] D2B,2C2D2 | 
[V:1] d3ef2e2- | 
[V:2] z2g2f2g2 | 
[V:3] g4z4 | 
[V:4] G,4z4 | 
[V:1] e2d4^c2 | 
[V:2] a2d2e4 | 
[V:3] z8 | 
[V:4] z8 | 
[V:1] d4z4 | 
[V:2] d4z4 | 
[V:3] z2d2cBAG | 
[V:4] z2G,2A,4 | 
[V:1] z4z2d2 | 
[V:2] z4z2B2 | 
[V:3] B2A2G2g2- | 
[V:4] G,2F,2G,4 | 
[V:1] cBAGB2A2- | 
[V:2] c4d2f2 | 
[V:3] g2f2g2d2 | 
[V:4] A,4G,2F,2 | 
[V:1] AGG4^F2 | 
[V:2] e2c2d4 | 
[V:3] B2G2A4 | 
[V:4] G,2E,2D,4 | 
[V:1] G4z2G2- | 
[V:2] z4d4 | 
[V:3] G8 | 
[V:4] D4z4 | 
[V:1] G2A2B2c2 | 
[V:2] e2f2g2f2 | 
[V:3] z8 | 
[V:4] z8 | 
[V:1] B2c4d2 | 
[V:2] g2a3gfe | 
[V:3] z8 | 
[V:4] z8 | 
[V:1] z2d2e2f2 | 
[V:2] d2a2a2a2 | 
[V:3] z2d2c2d2 | 
[V:4] z2D,2A,2D,2 | 
[V:1] e2d2d2^c2 | 
[V:2] a2a2a2a2 | 
[V:3] e2f2e2e2 | 
[V:4] A,2D,2A,2A,2 | 
[V:1] d8 | 
[V:2] f4z2a2 | 
[V:3] d8- | 
[V:4] D,8 | 
[V:1] z2d2c2B2 | 
[V:2] g3fe4 | 
[V:3] d4z2g2 | 
[V:4] G,4z4 | 
[V:1] A2G2B2c2 | 
[V:2] z8 | 
[V:3] f2e2d2c2 | 
[V:4] z2C2B,2A,2 | 
[V:1] d4z4 | 
[V:2] z8 | 
[V:3] BAd4^c2 | 
[V:4] G,2F,2E,2E,2 | 
[V:1] z4z2e2 | 
[V:2] z2a2a2a2 | 
[V:3] d4z2c2 | 
[V:4] D,4A,4 | 
[V:1] d2c2d2DE | 
[V:2] aggf/g/a4 | 
[V:3] d2e2d4 | 
[V:4] z4z2D,2- | 
[V:1] FGABc2B2- | 
[V:2] a3g/f/e2d2 | 
[V:3] z2d2c2d2 | 
[V:4] D,E,F,G,A,2B,2 | 
[V:1] BAA4G2 | 
[V:2] e4d2G2 | 
[V:3] A4B4 | 
[V:4] C3B,/C/D4 | 
[V:1] A4z4 | 
[V:2] d2f3ed2- | 
[V:3] A4z4 | 
[V:4] D,3E,F,2G,2 | 
[V:1] z2G2FGAB | 
[V:2] d2c2defg | 
[V:3] z2G2A2d2 | 
[V:4] E,4D,4 | 
[V:1] c2d2d2^c2 | 
[V:2] e2d2e2e2 | 
[V:3] c2B2A4 | 
[V:4] z8 | 
[V:1] d4z4 | 
[V:2] d4z4 | 
[V:3] d3cd2e2 | 
[V:4] D,3E,F,2G,2 | 
[V:1] z8 | 
[V:2] z8 | 
[V:3] f2fed2^c2 | 
[V:4] A,2A,G,F,G,E,2 | 
[V:1] z2d4G2 | 
[V:2] z2d4e2 | 
[V:3] d4z4 | 
[V:4] D,4z4 | 
[V:1] A2B2c4 | 
[V:2] f2g2e3d/c/ | 
[V:3] z8 | 
[V:4] z8 | 
[V:1] c3dc3B | 
[V:2] c4f3g | 
[V:3] z8 | 
[V:4] z8 | 
[V:1] A2G2A4 | 
[V:2] f2e2d2f2 | 
[V:3] z8 | 
[V:4] z4z2D,2 | 
[V:1] B4c3B | 
[V:2] g3fede2 | 
[V:3] z2G2c4 | 
[V:4] G,4C,2C,2 | 
[V:1] A2B2G4 | 
[V:2] f2d4^c2 | 
[V:3] F2F2G4 | 
[V:4] D,4E,4 | 
[V:1] F4z4 | 
[V:2] d4(3:2:2g4a2 | 
[V:3] A4(3:2:2d4e2 | 
[V:4] D,4(3:2:2B,4C2 | 
[V:1] z8 | 
[V:2] (3:2:5b4a2b2g2a2 | 
[V:3] (3:2:5f4e2f2d2e2 | 
[V:4] (3:2:5D4C2D2B,2C2 | 
[V:1] z8 | 
[V:2] (3:2:4b4a2g4^f2 | 
[V:3] (3:2:4f4e2d4c2 | 
[V:4] (3:2:4D4C2B,2A,4 | 
[V:1] B8 ||  
[V:2] g8 ||  
[V:3] d8 ||  
[V:4] G,8 ||  
[V:1]  [K:F] [K:clef=treble][M:2/1]z4d4 | 
[V:2]  [K:F] [K:clef=treble-8][M:2/1]a4f4 | 
[V:3]  [K:F] [K:clef=treble-8][M:2/1]z8 | 
[V:4]  [K:F] [K:clef=bass][M:2/1]z8 | 
[V:1] B4c4 | 
[V:2] g4a4 | 
[V:3] z8 | 
[V:4] z8 | 
[V:1] d2e2f3e | 
[V:2] z2g2a3g | 
[V:3] z8 | 
[V:4] z8 | 
[V:1] d2^c2d4 | 
[V:2] f2e2d4 | 
[V:3] z4d3c | 
[V:4] z8 | 
[V:1] z8 | 
[V:2] z8 | 
[V:3] d2e2f2d2- | 
[V:4] D,2C,2D,3F, | 
[V:1] z8 | 
[V:2] z8 | 
[V:3] d2^c2d4 | 
[V:4] E,4D,4 | 
[V:1] z2d4c2 | 
[V:2] g4f2e2 | 
[V:3] z8 | 
[V:4] z8 | 
[V:1] B2A2D2G2- | 
[V:2] d3cB2c2 | 
[V:3] z8 | 
[V:4] z2D,4C,2 | 
[V:1] G2^F2G4 | 
[V:2] A4G2g2- | 
[V:3] z4z2c2- | 
[V:4] D,2D,2E,4 | 
[V:1] z2d2cBAG | 
[V:2] gggge2f2- | 
[V:3] c2B2c2c2 | 
[V:4] G,4A,4 | 
[V:1] B2A2G2FE | 
[V:2] fed4c2 | 
[V:3] d4G2c2 | 
[V:4] D,4E,4 | 
[V:1] F2G4^F2 | 
[V:2] d8- | 
[V:3] B2AGA4 | 
[V:4] D,8 | 
[V:1] G8- | 
[V:2] d4z4 | 
[V:3] G8 | 
[V:4] z2D4D2 | 
[V:1] G4z4 | 
[V:2] z8 | 
[V:3] z2g4g2 | 
[V:4] C2B,2C2C2 | 
[V:1] z8 | 
[V:2] z8 | 
[V:3] f2e2f2ed | 
[V:4] D2CB,A,G,C2- | 
[V:1] z8 | 
[V:2] z8 | 
[V:3] edg4^f2 | 
[V:4] CB,A,G,A,2A,2 | 
[V:1] z2d2_e2d2- | 
[V:2] z4g4 | 
[V:3] g8 | 
[V:4] G,8 | 
[V:1] d2c2B2cB | 
[V:2] f3ed2c2 | 
[V:3] z8 | 
[V:4] z8 | 
[V:1] AFB2B2A2 | 
[V:2] d2_e2c2c2 | 
[V:3] z8 | 
[V:4] z8 | 
[V:1] B8 | 
[V:2] B2G2z2g2 | 
[V:3] z8 | 
[V:4] z4G,4 | 
[V:1] z2c2A2A2 | 
[V:2] e2e2f2d2 | 
[V:3] c4d2d2 | 
[V:4] A,2A,2D,4 | 
[V:1] B2G2c2c2 | 
[V:2] g2g2f3e | 
[V:3] G4z2A2 | 
[V:4] z2E,2F,4 | 
[V:1] B3AGFG2- | 
[V:2] dcd2e2c2- | 
[V:3] B4c4 | 
[V:4] G,4C,4 | 
[V:1] G2F4E2 | 
[V:2] c2B2c4 | 
[V:3] F4G4 | 
[V:4] D,4C,4 | 
[V:1] F4z2G2- | 
[V:2] z2d4c2 | 
[V:3] F4z4 | 
[V:4] F,4z4 | 
[V:1] G2F2G2G2 | 
[V:2] d2d2e2e2 | 
[V:3] z8 | 
[V:4] z8 | 
[V:1] A2A2B2B2 | 
[V:2] f2f2g3f | 
[V:3] z8 | 
[V:4] z8 | 
[V:1] c3BAGB2- | 
[V:2] edc2d3c | 
[V:3] z8 | 
[V:4] z8 | 
[V:1] BAG4^F2 | 
[V:2] B2c2A4 | 
[V:3] z8 | 
[V:4] z8 | 
[V:1] G4z4 | 
[V:2] G4z4 | 
[V:3] z2d2e2f2 | 
[V:4] z2B,2C2D2 | 
[V:1] z4d2d2 | 
[V:2] z4g3a | 
[V:3] g4z4 | 
[V:4] G,4z4 | 
[V:1] e2d2d2^c2 | 
[V:2] g2f2e4 | 
[V:3] z8 | 
[V:4] z8 | 
[V:1] d3c/B/A4 | 
[V:2] d4z2f2 | 
[V:3] z2d2c3A | 
[V:4] G,4A,4 | 
[V:1] z8 | 
[V:2] e2d4^c2 | 
[V:3] B2A4G2 | 
[V:4] G,2F,2E,4 | 
[V:1] z2d2c2A2 | 
[V:2] d2d2e4 | 
[V:3] A4z2c2 | 
[V:4] D,2D,2A,4 | 
[V:1] B2A2G2A2- | 
[V:2] f2f2e2f2 | 
[V:3] d2c2B2c2- | 
[V:4] D,2F,2G,2F,2 | 
[V:1] A2G4F2 | 
[V:2] g2c2d4 | 
[V:3] cBG2A2A2 | 
[V:4] D,2E,2D,4 | 
[V:1] GABcdefg | 
[V:2] z2g2f2d2 | 
[V:3] G4B4 | 
[V:4] _E,4D,4 | 
[V:1] edcBAGB2 | 
[V:2] e4f2g2 | 
[V:3] c4d3B | 
[V:4] C,4z2G,2 | 
[V:1] A2G4^F2 | 
[V:2] c4d4 | 
[V:3] c2G2A4 | 
[V:4] F,2E,2D,4 | 
[V:1] G8 |]  
[V:2] d8 |]  
[V:3] G8 |]  
[V:4] G,8 |]  
